X:1
T:Gloriosa Verginella
T:André Vierendeels
T:Source : Melody from "Corona di Sacra canzoni o Laude spirituali" (Tenor voice) Firenze---Eredi Francesco Orofri---1689. Editor : André Vierendeels (02/12/17). Notes : Original clef : C4, other voices supplied editorially Music compiled by Matteo Coferati
T:Gloriosa Verginella
T:©
T:©
C:André Vierendeels
Z:©
%%score [ 1 2 3 ]
L:1/8
Q:1/4=101
M:4/4
K:C
V:1 treble nm="Soprano" snm="S"
V:2 treble nm="Alto" snm="A"
V:3 treble-8 nm="Tenor" snm="T"
V:1
"^1)" d2 c2 c2 B2 | A2 d2 c2 G2 | B2 c2 (A2 B2) | c4 c2 A2 | G2 c2 d2 d2 | _B2 A2 B4 |[M:2/4] A4 :: %7
w: Glo- ri- o- sa|Ver- gi- nel- la,|pu- ro Gi- *|glio, Ma- dre|fi- glia'e Spo- sa|del tuo Fi-|glio.|
w: Glo- ri- o- s'al-|ta Re- gi- na,|Ver- gin san- ta,|va- ga Stel-|la ma- tu- tin'|di- va pian-|ta,|
 c3 G |[M:4/4] A2 c2 d2 d2 | c4 d4 | G2 A2 A4 | ^F8 :| %12
w: O Ma-|ria dol- ce te-|so- ro,|io t'a- do-|ro.|
w: O Ma-|rao dol- ce te-|so- ro,|io t'a- do-|ro.|
V:2
"^2)""^1)" F2 G2 A2 D2 | C2 F2 E2 D2 | G2 A2 (F2 G2) | E4 C2 D2 | _B,2 C2 D2 F2 | D2 F2 D4 | %6
w: Glo- ri- o- sa|Ver- gi- nel- la,|pu- ro Gi- *|glio, Ma- dre|fi- glia'e Spo- sa|del tuo Fi-|
w: Glo- ri- o- s'al-|ma, se- re- na,|be- ne det- *|ta, e di|glo- ria'e gra- zia|di- va'e- let-|
[M:2/4] F4 :: E3 D |[M:4/4] E2 F2 F2 G2 | (E2 C2) B,4 | E2 F2 (D2 ^C2) | D8 :| %12
w: glio.|O Ma-|ria dol- ce te-|so- * ro,|io t'a- do- *|ro.|
w: ta.|O Ma-|ria dol- ce te-|so- * ro,|io t'a- do- *|ro.|
V:3
"^3)""^1)""^4)" D2 E2 F2 G2 | A2 B2 c2 B2 | d2 c3 B3 | A4 A2 F2 | G2 A2 _B2 A2 | G2 F2 G4 | %6
w: Glo- ri- o- sa|Ver- gi- nel- la,|pu- ro Gi-|glio, Ma- dre|fi- glia'e Spo- sa|del tuo Fi-|
w: Glo- ri- o- sa|ri- splen- den- t'e|chia- ra lu-|ce'a- mo- ro-|so Sol lu- cent'|fi- da du-|
[M:2/4] F4 :: A3 B |[M:4/4] c2 A2 _B2 G2 | A4 G4 | G3 F (F E3) | D8 :| %12
w: glio.|O Ma-|ria dol- ce te-|so- ro,|io t'a- do- *|ro.|
w: ce,|O Ma-|ria dol- ce te-|so- ro,|io t'a- do- *|ro.|

